X: 12101
T: Ev Chistr 'Ta, Laou
R: barndance
M: 4/4
K: Gminor
f2 f2d2|e4c4|z2f2 f2e2|d2f2 f2d2|e4c3c|
d2B2 c4|z2f2 f2d2|e4c4|z2f2 f2e2|d2f2 f2d2|
e4c3c|d2B2 c4|z2c2 e2f2|g4g4|_a2f2 g4|
z2g2 f2f2|e4c4|d2B2 c4|z2c2 e2f2|
g4g4|_a2f2 g4|z2g2 f2f2|e4c3c|d2B2 c4||

